X:1
T:Herrnhut (Crüger), 76.76 D
T:Herrnhut (Crüger), 76.76 D
T:Johann Crüger (1598-1662) 
T:Public Domain Courtesy of the Cyber Hymnal™
C:Johann Crüger (1598-1662)
Z:Public Domain
Z:Courtesy of the Cyber Hymnal™
%%score ( 1 2 ) ( 3 4 )
L:1/8
Q:1/4=110
M:4/4
K:F
V:1 treble 
V:2 treble 
V:3 bass 
V:4 bass 
V:1
 [Fc]2 | [Fd]2 [Fc]2 [FB]2 [FA]2 | G4 [FA]2 [FA]2 | [CF]2 F2 [FG]2 [Ec]2 | [FA]6 [Fc]2 | %5
 [Fd]2 [Fc]2 [FB]2 [FA]2 | G4 [FA]2 [FA]2 | [CF]2 F2 [FG]2 [Ec]2 | [FA]6 [FA]2 | %9
 [FB]2 [FA]2 [EG]2 [DF]2 | E4 [DF]2 [FA]2 | [EG]2 [DG]2 [^CA]2 [DF]2 | [^CE]6 [=CA]2 | %13
 [FA]2 [EG]2 [FA]2 [Fd]2 | [Ec]4 [FA]2 [Fc]2 | [FB]2 [FA]2 [FG]2 [EG]2 | F6 |] %17
V:2
 x2 | x8 | (F2 E2) x4 | x2 F2 x4 | x8 | x8 | (F2 E2) x4 | x2 F2 x4 | x8 | x8 | (D2 ^C2) x4 | x8 | %12
 x8 | x8 | x8 | x8 | F6 |] %17
V:3
 [F,A,]2 | [B,,B,]2 [A,,C]2 [B,,D]2 [F,,C]2 | [C,C]4 [F,C]2 [F,C]2 | A,2 [D,A,]2 [C,C]2 [C,C]2 | %4
 [F,C]6 [F,A,]2 | [B,,B,]2 [A,,C]2 [B,,D]2 [F,,C]2 | [C,C]4 [F,C]2 [F,C]2 | %7
 A,2 [D,A,]2 [C,C]2 [C,C]2 | [F,C]6 [F,C]2 | [D,B,]2 [F,C]2 [C,C]2 [D,A,]2 | %10
 [A,,A,]4 [D,A,]2 [F,,C]2 | [C,C]2 [B,,G,]2 [A,,E,]2 (F,G,) | [A,,A,]6 [F,A,]2 | %13
 [F,C]2 [C,C]2 [F,C]2 [B,,B,]2 | (G,2 C2) [F,C]2 [A,,C]2 | [B,,D]2 [F,,C]2 [C,C]2 [C,C]2 | %16
 [F,A,]6 |] %17
V:4
 x2 | x8 | x8 | A,2 x6 | x8 | x8 | x8 | A,2 x6 | x8 | x8 | x8 | x6 D,2 | x8 | x8 | C,4 x4 | x8 | %16
 x6 |] %17

